build/images/icons/damn_1.svg

<svg width="81" height="78" fill="none" xmlns="http://www.w3.org/2000/svg"><path fill-rule="evenodd" clip-rule="evenodd" d="M4 59h34V39H4v20z" fill="#D1D1D1"/><path fill-rule="evenodd" clip-rule="evenodd" d="M3 37a1 1 0 00-1 1v24a1 1 0 001 1h36a1 1 0 001-1V38a1 1 0 00-1-1H3zm36 28H3c-1.654 0-3-1.346-3-3V38c0-1.654 1.346-3 3-3h36c1.654 0 3 1.346 3 3v24c0 1.654-1.346 3-3 3z" fill="#383F4E"/><path fill-rule="evenodd" clip-rule="evenodd" d="M2 60v2a1 1 0 001 1h36a1 1 0 001-1v-2H2zm37 5H3c-1.654 0-3-1.346-3-3v-3a1 1 0 011-1h40a1 1 0 011 1v3c0 1.654-1.346 3-3 3zM13 76h16v-1a1 1 0 00-1-1H14a1 1 0 00-1 1v1zm17 2H12a1 1 0 01-1-1v-2c0-1.654 1.346-3 3-3h14c1.654 0 3 1.346 3 3v2a1 1 0 01-1 1z" fill="#383F4E"/><path fill-rule="evenodd" clip-rule="evenodd" d="M17.43 72h7.144c-.544-1.609-1.36-4.385-1.54-7h-4.07c-.177 2.639-.989 5.397-1.534 7zM26 74H16a1 1 0 01-.927-1.375C15.093 72.577 17 67.814 17 64a1 1 0 011-1h6a1 1 0 011 1c0 3.756 1.91 8.581 1.93 8.629A1 1 0 0126 74zm16-2h32V53a1 1 0 00-1-1H43a1 1 0 00-1 1v19zm33 2H41a1 1 0 01-1-1V53c0-1.654 1.346-3 3-3h30c1.654 0 3 1.346 3 3v20a1 1 0 01-1 1z" fill="#383F4E"/><path fill-rule="evenodd" clip-rule="evenodd" d="M37.171 74A3.006 3.006 0 0040 76h36a3.006 3.006 0 002.829-2H37.171zM76 78H40c-2.757 0-5-2.243-5-5a1 1 0 011-1h44a1 1 0 011 1c0 2.757-2.243 5-5 5z" fill="#383F4E"/><mask id="a" maskUnits="userSpaceOnUse" x="0" y="0" width="81" height="78"><path fill-rule="evenodd" clip-rule="evenodd" d="M0 78h81V0H0v78z" fill="#fff"/></mask><g mask="url(#a)" fill-rule="evenodd" clip-rule="evenodd"><path d="M44 72h28V54H44v18z" fill="#D1D1D1"/><path d="M22 37a1 1 0 01-1-1v-4.001a1 1 0 112 0V36a1 1 0 01-1 1zm0-11a1 1 0 01-1-1v-3c0-1.654 1.346-3 3-3h3a1 1 0 110 2h-3a1 1 0 00-1 1v3a1 1 0 01-1 1zm38-5H33a1 1 0 110-2h27a1 1 0 110 2zm11 5a1 1 0 01-1-1v-3a1 1 0 00-1-1h-3a1 1 0 110-2h3c1.654 0 3 1.346 3 3v3a1 1 0 01-1 1zm0 13a1 1 0 01-1-1v-6a1 1 0 112 0v6a1 1 0 01-1 1zm0 13a1 1 0 01-1-1v-6a1 1 0 112 0v6a1 1 0 01-1 1z" fill="#383F4E"/><path d="M39 2a1 1 0 00-1 1v26a1 1 0 001 1h16a1 1 0 001-1V3a1 1 0 00-1-1H39zm16 30H39c-1.654 0-3-1.346-3-3V3c0-1.654 1.346-3 3-3h16c1.654 0 3 1.346 3 3v26c0 1.654-1.346 3-3 3z" fill="#383F4E"/><path d="M38 25h18V7H38v18zm19 2H37a1 1 0 01-1-1V6a1 1 0 011-1h20a1 1 0 011 1v20a1 1 0 01-1 1z" fill="#383F4E"/><path d="M36 27h22V5H36v22z" fill="#213B6E"/></g></svg>

<svg width="81" height="78" viewBox="0 0 81 78" fill="none" xmlns="http://www.w3.org/2000/svg">
<path fill-rule="evenodd" clip-rule="evenodd" d="M4 59H38V39H4V59Z" fill="#D1D1D1"/>
<path fill-rule="evenodd" clip-rule="evenodd" d="M3 37C2.448 37 2 37.448 2 38V62C2 62.552 2.448 63 3 63H39C39.552 63 40 62.552 40 62V38C40 37.448 39.552 37 39 37H3ZM39 65H3C1.346 65 0 63.654 0 62V38C0 36.346 1.346 35 3 35H39C40.654 35 42 36.346 42 38V62C42 63.654 40.654 65 39 65Z" fill="#383F4E"/>
<path fill-rule="evenodd" clip-rule="evenodd" d="M2 60V62C2 62.552 2.448 63 3 63H39C39.552 63 40 62.552 40 62V60H2ZM39 65H3C1.346 65 0 63.654 0 62V59C0 58.447 0.447 58 1 58H41C41.553 58 42 58.447 42 59V62C42 63.654 40.654 65 39 65Z" fill="#383F4E"/>
<path fill-rule="evenodd" clip-rule="evenodd" d="M13 76H29V75C29 74.448 28.552 74 28 74H14C13.448 74 13 74.448 13 75V76ZM30 78H12C11.447 78 11 77.553 11 77V75C11 73.346 12.346 72 14 72H28C29.654 72 31 73.346 31 75V77C31 77.553 30.553 78 30 78Z" fill="#383F4E"/>
<path fill-rule="evenodd" clip-rule="evenodd" d="M17.4302 72H24.5742C24.0302 70.391 23.2142 67.615 23.0342 65H18.9642C18.7872 67.639 17.9752 70.397 17.4302 72ZM25.9992 74H15.9992C15.6672 74 15.3562 73.835 15.1702 73.559C14.9852 73.283 14.9482 72.934 15.0732 72.625C15.0922 72.577 16.9992 67.814 16.9992 64C16.9992 63.447 17.4472 63 17.9992 63H23.9992C24.5522 63 24.9992 63.447 24.9992 64C24.9992 67.756 26.9092 72.581 26.9282 72.629C27.0512 72.937 27.0132 73.286 26.8272 73.561C26.6412 73.835 26.3312 74 25.9992 74Z" fill="#383F4E"/>
<path fill-rule="evenodd" clip-rule="evenodd" d="M42 72H74V53C74 52.448 73.552 52 73 52H43C42.448 52 42 52.448 42 53V72ZM75 74H41C40.447 74 40 73.553 40 73V53C40 51.346 41.346 50 43 50H73C74.654 50 76 51.346 76 53V73C76 73.553 75.553 74 75 74Z" fill="#383F4E"/>
<path fill-rule="evenodd" clip-rule="evenodd" d="M37.171 74C37.584 75.164 38.696 76 40 76H76C77.304 76 78.416 75.164 78.829 74H37.171ZM76 78H40C37.243 78 35 75.757 35 73C35 72.447 35.447 72 36 72H80C80.553 72 81 72.447 81 73C81 75.757 78.757 78 76 78Z" fill="#383F4E"/>
<mask id="mask0" mask-type="alpha" maskUnits="userSpaceOnUse" x="0" y="0" width="81" height="78">
<path fill-rule="evenodd" clip-rule="evenodd" d="M0 78H81V0H0V78Z" fill="white"/>
</mask>
<g mask="url(#mask0)">
<path fill-rule="evenodd" clip-rule="evenodd" d="M44 72H72V54H44V72Z" fill="#D1D1D1"/>
<path fill-rule="evenodd" clip-rule="evenodd" d="M22 37C21.447 37 21 36.553 21 36V31.999C21 31.446 21.447 30.999 22 30.999C22.553 30.999 23 31.446 23 31.999V36C23 36.553 22.553 37 22 37Z" fill="#383F4E"/>
<path fill-rule="evenodd" clip-rule="evenodd" d="M22 26C21.447 26 21 25.553 21 25V22C21 20.346 22.346 19 24 19H27C27.553 19 28 19.447 28 20C28 20.553 27.553 21 27 21H24C23.448 21 23 21.448 23 22V25C23 25.553 22.553 26 22 26Z" fill="#383F4E"/>
<path fill-rule="evenodd" clip-rule="evenodd" d="M60 21H33C32.447 21 32 20.553 32 20C32 19.447 32.447 19 33 19H60C60.553 19 61 19.447 61 20C61 20.553 60.553 21 60 21Z" fill="#383F4E"/>
<path fill-rule="evenodd" clip-rule="evenodd" d="M71 26C70.447 26 70 25.553 70 25V22C70 21.448 69.552 21 69 21H66C65.447 21 65 20.553 65 20C65 19.447 65.447 19 66 19H69C70.654 19 72 20.346 72 22V25C72 25.553 71.553 26 71 26Z" fill="#383F4E"/>
<path fill-rule="evenodd" clip-rule="evenodd" d="M71 39C70.447 39 70 38.553 70 38V32C70 31.447 70.447 31 71 31C71.553 31 72 31.447 72 32V38C72 38.553 71.553 39 71 39Z" fill="#383F4E"/>
<path fill-rule="evenodd" clip-rule="evenodd" d="M71 52C70.447 52 70 51.553 70 51V45C70 44.447 70.447 44 71 44C71.553 44 72 44.447 72 45V51C72 51.553 71.553 52 71 52Z" fill="#383F4E"/>
<path fill-rule="evenodd" clip-rule="evenodd" d="M39 2C38.448 2 38 2.448 38 3V29C38 29.552 38.448 30 39 30H55C55.552 30 56 29.552 56 29V3C56 2.448 55.552 2 55 2H39ZM55 32H39C37.346 32 36 30.654 36 29V3C36 1.346 37.346 0 39 0H55C56.654 0 58 1.346 58 3V29C58 30.654 56.654 32 55 32Z" fill="#383F4E"/>
<path fill-rule="evenodd" clip-rule="evenodd" d="M38 25H56V7H38V25ZM57 27H37C36.447 27 36 26.553 36 26V6C36 5.447 36.447 5 37 5H57C57.553 5 58 5.447 58 6V26C58 26.553 57.553 27 57 27Z" fill="#383F4E"/>
<path fill-rule="evenodd" clip-rule="evenodd" d="M36 27H58V5H36V27Z" fill="#213B6E"/>
</g>
</svg>
